assets/images/icon-talk.svg

<svg width="45" height="45" viewBox="0 0 45 45" fill="none" xmlns="http://www.w3.org/2000/svg">
<g id="icon-talk 1" clip-path="url(#clip0_5_47)">
<g id="Group">
<path id="Vector" d="M22.5 45C34.9264 45 45 34.9264 45 22.5C45 10.0736 34.9264 0 22.5 0C10.0736 0 0 10.0736 0 22.5C0 34.9264 10.0736 45 22.5 45Z" fill="#E5C295"/>
<g id="Group_2">
<path id="Vector_2" fill-rule="evenodd" clip-rule="evenodd" d="M21.778 29.259H12.546C11.789 29.258 11.259 28.868 11.061 28.152C11.0187 27.982 10.9992 27.8072 11.003 27.632C11 23.21 11 18.788 11 14.366C11 13.388 11.6 12.757 12.54 12.751C13.464 12.745 14.388 12.75 15.313 12.749H21.746C21.931 12.193 22.158 11.981 22.536 12.001C22.894 12.021 23.126 12.261 23.238 12.749H32.399C32.783 12.749 33.146 12.819 33.45 13.082C33.821 13.403 33.998 13.825 33.998 14.325C34 18.781 34.002 23.237 33.997 27.692C33.995 28.624 33.377 29.256 32.49 29.257C29.89 29.261 27.292 29.259 24.693 29.257C24.303 29.257 24.001 28.999 23.949 28.63C23.895 28.241 24.097 27.902 24.464 27.79C24.566 27.76 24.68 27.76 24.789 27.76C27.297 27.758 29.806 27.759 32.315 27.759H32.552V14.265H12.45V27.759H12.667C15.9 27.759 19.133 27.766 22.365 27.752C22.865 27.75 23.249 28.084 23.226 28.651C23.206 29.183 23.226 29.718 23.219 30.251C23.2157 30.3132 23.2259 30.3753 23.2489 30.4331C23.2718 30.4909 23.307 30.5431 23.352 30.586C24.648 31.933 25.941 33.284 27.234 34.634C27.537 34.951 27.594 35.288 27.434 35.62C27.205 36.096 26.572 36.093 26.276 35.774C25.803 35.265 25.318 34.769 24.839 34.267L22.633 31.959C22.593 31.918 22.547 31.882 22.493 31.833C22.429 31.896 22.373 31.95 22.319 32.006C21.141 33.238 19.962 34.47 18.785 35.704C18.62 35.877 18.447 36 18.195 36C17.865 36 17.654 35.838 17.533 35.54C17.4735 35.4103 17.4546 35.2656 17.4789 35.125C17.5032 34.9843 17.5694 34.8543 17.669 34.752C18.082 34.305 18.506 33.87 18.926 33.43C19.831 32.485 20.736 31.538 21.644 30.597C21.6916 30.5516 21.7287 30.4962 21.7525 30.4349C21.7764 30.3736 21.7864 30.3077 21.782 30.242C21.772 29.925 21.778 29.608 21.778 29.259Z" fill="white"/>
<path id="Vector_3" fill-rule="evenodd" clip-rule="evenodd" d="M22.507 18.003C24.063 18.003 25.617 18 27.173 18.005C27.755 18.007 28.133 18.642 27.956 19.311C27.866 19.651 27.682 19.871 27.407 19.958C27.3188 19.9849 27.2272 19.9984 27.135 19.998C24.045 20 20.957 20 17.868 19.999C17.416 19.999 17.081 19.677 17.013 19.188C16.927 18.559 17.27 18.018 17.778 18.006C18.337 17.994 18.895 18.003 19.454 18.003H22.507ZM19.506 21C20.078 21 20.65 20.999 21.222 21.001C21.692 21.003 22.003 21.407 22 22.004C21.997 22.584 21.682 22.996 21.23 22.997C20.066 23 18.903 23.002 17.74 22.997C17.356 22.995 17.053 22.634 17.007 22.149C16.958 21.632 17.17 21.167 17.523 21.037C17.6093 21.01 17.6996 20.9981 17.79 21.002C18.362 20.999 18.934 21 19.506 21Z" fill="white"/>
</g>
</g>
</g>
<defs>
<clipPath id="clip0_5_47">
<rect width="45" height="45" fill="white"/>
</clipPath>
</defs>
</svg>

<svg xmlns="http://www.w3.org/2000/svg" width="45" height="45" viewBox="0 0 45 45">
    <g fill="none" fill-rule="evenodd">
        <circle cx="22.5" cy="22.5" r="22.5" fill="#D95D1D"/>
        <g fill="#FFF">
            <path d="M21.778 29.259H12.546c-.757-.001-1.287-.391-1.485-1.107a1.98 1.98 0 0 1-.058-.52C11 23.21 11 18.788 11 14.366c0-.978.6-1.609 1.54-1.615.924-.006 1.848-.001 2.773-.002h6.433c.185-.556.412-.768.79-.748.358.02.59.26.702.748H32.399c.384 0 .747.07 1.051.333.371.321.548.743.548 1.243.002 4.456.004 8.912-.001 13.367-.002.932-.62 1.564-1.507 1.565-2.6.004-5.198.002-7.797 0-.39 0-.692-.258-.744-.627-.054-.389.148-.728.515-.84.102-.03.216-.03.325-.03 2.508-.002 5.017-.001 7.526-.001h.237V14.265H12.45v13.494h.217c3.233 0 6.466.007 9.698-.007.5-.002.884.332.861.899-.02.532 0 1.067-.007 1.6a.432.432 0 0 0 .133.335c1.296 1.347 2.589 2.698 3.882 4.048.303.317.36.654.2.986-.229.476-.862.473-1.158.154-.473-.509-.958-1.005-1.437-1.507l-2.206-2.308c-.04-.041-.086-.077-.14-.126-.064.063-.12.117-.174.173-1.178 1.232-2.357 2.464-3.534 3.698-.165.173-.338.296-.59.296-.33 0-.541-.162-.662-.46a.707.707 0 0 1 .136-.788c.413-.447.837-.882 1.257-1.322.905-.945 1.81-1.892 2.718-2.833a.449.449 0 0 0 .138-.355c-.01-.317-.003-.634-.003-.983"/>
            <path d="M22.507 18.003c1.556 0 3.11-.003 4.666.002.582.002.96.637.783 1.306-.09.34-.274.56-.549.647a.92.92 0 0 1-.272.04c-3.09.002-6.178.002-9.267.001-.452 0-.787-.322-.855-.811-.086-.629.257-1.17.765-1.182.559-.012 1.117-.003 1.676-.003h3.053M19.506 21c.572 0 1.144-.001 1.716.001.47.002.781.406.778 1.003-.003.58-.318.992-.77.993-1.164.003-2.327.005-3.49 0-.384-.002-.687-.363-.733-.848-.049-.517.163-.982.516-1.112a.781.781 0 0 1 .267-.035c.572-.003 1.144-.001 1.716-.001"/>
        </g>
    </g>
</svg>
